X:537
T: Zhaicha guniang xinhuanchang
N: C1955
O: China, Jiangxi Ruijin
S: IV, 193]
R: Xiaodiao, Chage]
M: 2/4
L: 1/16
K: C
G2D2E2G2 | AcA2A4 | c3dede2 | d8
c2c2dcA2 | G3Ac2d2 | A2GAc2A2 | G8
G2D2E2G2 | A2c2A2E2 | c2Acd2c2 | A2A6
G2D2E2G2 | A2c2A2D2 | c3dede2 | d8
e2e2A2A2 | c8 | A2GAc2A2 | G8
G2D2E2G2 | A2d2d2c2 | A2GAc2A2 | G2G6

